X:173
M:4/4
L:1/8
K:D
| E2BE dBeB | dBAF DEFA | E2BE dBeB | dBAF BEED | 
E2BE dBeB | dBAF DEFA | E2BE dBeB | dBAF B2E2 | 
| Beef gfed | BdAF DEFA | Beef gfed | BdAd BEE2 | 

